X:1
T:Number 9
N:From the playing of Alva Greene (1894-1976, Sandy Hook, Elliot County,
N:northeast Ky.), recorded in 1973 by Chris Delaney. Mr. Greene
N:was age 78 at the time of the recording.
M:C|
L:1/8
R:Reel
Q:"Quick"
D: https://www.slippery-hill.com/recording/number-9
Z:Transcribed by Andrew Kuntz
K:G
ga|b2b2 bag2 |bage d2d2|egdg egdg|egdg a2ga|
b2b2 ba g2|bage d2d2|egdg edBG|AG2 G G2||
|:[DA]c|BABc BAGA|Bddd d2g2|[d2g2]d2 edBG|A-BG2 AGEG|
DEGA BAGA|Bd2d d2g2| [d2g2]d2 edBG|AG2 G G2:|]

